X:1236
T:Olas och Annas polska
R:Polska
S:Efter Anders Edvin Pettersson
Z:C-G Magnusson, 2009-02-25
O:Frändefors, Dalsland
N:"Ola å Anna, på fåretalle gick de å valle, å Ola ba´ Anna att hon skulle spinna, å Anna ba´ Ola att han slulle karda."
B:Svenska Låtar Dalsland nr 278
Q:130
M:3/4
L:1/8
K:Gm
G>A B4 | ({c}(3BAB) c4 | {d}c>B G>A (3BcB | AF G4 :: d2 B>c d>e |
(3fdf (3ece d2 | d2 B>c d>e | (3fdf (3ece d2 | d2 G>A Bc/B/ | AF G4 :|
(:musicend:)

(:music:)
